X:12
T:69. The Green Fields of Rossbeigh [The Kerry Reel]
S:Mike Rafferty
Z:Lesl
M:C|
L:1/8
K:Edor
A|:BE~E2 BAF2|ABde fded|BE~E2 BAFA|BFAF EFGA|
B3B BAF2|ABde fded|BE~E2 BAFA|1 BFAF E3A:|2 BFAF E4||
|:(3Bcd ef g2fe|dB~B2 dBA2|Bdef gefe|dBAF E3f|
~g3a gfed|f~f2z fedB|ABde f2eB|dBAF E4:||

